suite-common/icons/assets/icons/lock.svg

<svg xmlns="http://www.w3.org/2000/svg" xml:space="preserve" fill="none" viewBox="0 0 24 24">
  <path fill="#000" fill-rule="evenodd" d="M11.161.845A4.14 4.14 0 0 0 7.94 4.184c-.046.267-.06.688-.06 1.841V7.52l-1.85.001c-1.846.001-1.85.001-2.077.094-.488.201-.83.613-.911 1.096-.032.192-.041 1.828-.033 5.709l.011 5.44.112.24c.147.315.455.624.764.767l.244.113h15.72l.244-.113c.309-.143.617-.452.764-.767l.112-.24.011-5.44c.008-3.881-.001-5.517-.033-5.709-.077-.463-.4-.868-.865-1.082-.189-.087-.234-.089-2.073-.109l-1.88-.02-.023-1.62c-.025-1.7-.041-1.865-.232-2.377a4.1 4.1 0 0 0-.937-1.49A4.12 4.12 0 0 0 11.161.845m1.345 1.454c.509.096.928.327 1.339.737.282.282.373.406.505.684.264.556.27.604.27 2.28v1.5H9.38V6c0-1.676.006-1.724.27-2.28.226-.477.703-.956 1.19-1.195a2.52 2.52 0 0 1 1.666-.226M19.51 14.25l-.01 5.25h-15l-.01-5.25L4.48 9h15.04z"/>
</svg>

<svg xmlns="http://www.w3.org/2000/svg" xml:space="preserve" fill="none" viewBox="0 0 24 24"><path d="M11.161 0.845 C 9.511 1.191,8.231 2.519,7.940 4.184 C 7.894 4.451,7.880 4.872,7.880 6.025 L 7.880 7.520 6.030 7.521 C 4.184 7.522,4.180 7.522,3.953 7.615 C 3.465 7.816,3.123 8.228,3.042 8.711 C 3.010 8.903,3.001 10.539,3.009 14.420 L 3.020 19.860 3.132 20.100 C 3.279 20.415,3.587 20.724,3.896 20.867 L 4.140 20.980 12.000 20.980 L 19.860 20.980 20.104 20.867 C 20.413 20.724,20.721 20.415,20.868 20.100 L 20.980 19.860 20.991 14.420 C 20.999 10.539,20.990 8.903,20.958 8.711 C 20.881 8.248,20.558 7.843,20.093 7.629 C 19.904 7.542,19.859 7.540,18.020 7.520 L 16.140 7.500 16.117 5.880 C 16.092 4.180,16.076 4.015,15.885 3.503 C 15.662 2.909,15.389 2.474,14.948 2.013 C 13.986 1.008,12.529 0.558,11.161 0.845 M12.506 2.299 C 13.015 2.395,13.434 2.626,13.845 3.036 C 14.127 3.318,14.218 3.442,14.350 3.720 C 14.614 4.276,14.620 4.324,14.620 6.000 L 14.620 7.500 12.000 7.500 L 9.380 7.500 9.380 6.000 C 9.380 4.324,9.386 4.276,9.650 3.720 C 9.876 3.243,10.353 2.764,10.840 2.525 C 11.384 2.257,11.909 2.186,12.506 2.299 M19.510 14.250 L 19.500 19.500 12.000 19.500 L 4.500 19.500 4.490 14.250 L 4.480 9.000 12.000 9.000 L 19.520 9.000 19.510 14.250 " stroke="none" fill-rule="evenodd" fill="black"></path></svg>
